svgs/sharp-regular/car-wrench.svg

<svg xmlns="http://www.w3.org/2000/svg" viewBox="0 0 512 512"><!--! Font Awesome Pro 6.6.0 by @fontawesome - https://fontawesome.com License - https://fontawesome.com/license (Commercial License) Copyright 2024 Fonticons, Inc. --><path d="M80 0c32.8 0 61 19.7 73.3 48l205.3 0C371 19.7 399.2 0 432 0c12.5 0 24.4 2.9 34.9 8c19.6 9.5 34.8 26.9 41.4 48L480 56l-26.8 0L432 56l0 48 21.2 0 26.8 0 28.3 0c-6.6 21.1-21.8 38.5-41.4 48c-10.6 5.1-22.4 8-34.9 8c-32.8 0-61-19.7-73.3-48l-205.3 0C141 140.3 112.8 160 80 160c-12.5 0-24.4-2.9-34.9-8c-19.6-9.5-34.8-26.9-41.4-48L32 104l26.8 0L80 104l0-48L58.8 56 32 56 3.7 56C10.3 34.9 25.4 17.5 45.1 8C55.6 2.9 67.5 0 80 0zm55.1 160l16.9 0 208 0 16.9 0 5.7 15.9L416.9 272l47.1 0 0 48 0 80 0 16 0 32 0 64-48 0 0-64L96 448l0 64-48 0 0-64 0-32 0-16 0-80 0-48 47.1 0 34.3-96.1 5.7-15.9zM400.6 320c-.4 0-.7 0-1.1 0l-286.9 0c-.4 0-.7 0-1.1 0L96 320l0 80 320 0 0-80-15.4 0zM343.1 208l-174.2 0-22.9 64 219.9 0-22.9-64zM160 336a24 24 0 1 1 0 48 24 24 0 1 1 0-48zm168 24a24 24 0 1 1 48 0 24 24 0 1 1 -48 0z"/></svg>

<svg xmlns="http://www.w3.org/2000/svg" viewBox="0 0 512 512"><!--! Font Awesome Pro 6.5.2 by @fontawesome - https://fontawesome.com License - https://fontawesome.com/license (Commercial License) Copyright 2024 Fonticons, Inc. --><path d="M80 0c32.8 0 61 19.7 73.3 48H358.7C371 19.7 399.2 0 432 0c12.5 0 24.4 2.9 34.9 8c19.6 9.5 34.8 26.9 41.4 48H480 453.2 432v48h21.2H480h28.3c-6.6 21.1-21.8 38.5-41.4 48c-10.6 5.1-22.4 8-34.9 8c-32.8 0-61-19.7-73.3-48H153.3C141 140.3 112.8 160 80 160c-12.5 0-24.4-2.9-34.9-8c-19.6-9.5-34.8-26.9-41.4-48H32 58.8 80V56H58.8 32 3.7C10.3 34.9 25.4 17.5 45.1 8C55.6 2.9 67.5 0 80 0zm55.1 160H152 360h16.9l5.7 15.9L416.9 272H464v48 80 16 32 64H416V448H96v64H48V448 416 400 320 272H95.1l34.3-96.1 5.7-15.9zM400.6 320c-.4 0-.7 0-1.1 0H112.6c-.4 0-.7 0-1.1 0H96v80H416V320H400.6zM343.1 208H168.9l-22.9 64H365.9l-22.9-64zM160 336a24 24 0 1 1 0 48 24 24 0 1 1 0-48zm168 24a24 24 0 1 1 48 0 24 24 0 1 1 -48 0z"/></svg>
